X:1
T:Title
T:Morgenstimmung aus der Peer-Gynt-Suite
T:E. Grieg (1843-1907)
C:Composer
%%score { 1 | 2 }
L:1/8
M:6/8
K:C
V:1 treble nm="Piano" snm="Pno."
V:2 bass 
V:1
!p! GED CDE | GED CD/E/D/E/ | GEG AEA | GED C3/2 x/ x | GED CDE |!mp! GED CD/E/D/E/ | GEG AEA | %7
 B^G^F E3 | B^G^F EFG | B^G^F EF/G/F/G/ | B^GB c^Gc | B^G^F E3 |!mf! B^G^F EFG | B^G^F EF/G/F/G/ | %14
 B^GB cAc | dBA G3 | dBA GA/B/A/B/ | dBA GA/B/A/B/ | dBG DB,G, | dBG DB,G, |!f!!8va(! ged cde | %21
 ged cd/e/d/e/ | geg aea | afe d3 | afe def | afe de/f/e/f/ | afa bfb | bgb c'gc' | c'ac' d'ad' | %29
!ff! e'/b/^g/e/g/b/ e/!8va)! z/ z2 | !fermata!z6 |!p! GED CDE | GED CD/E/D/E/ | [CEG]6 | [CEA]6 | %35
!>(! [EG]6 | [CA]6!>)! |!pp! [ce]6 |] %38
V:2
 [C,E,G,]6 | [C,E,G,]6 | [C,E,G,]3 [A,,C,E,]3 | [C,E,G,]3 G,E,D, | [C,E,G,]6 | [C,E,G,]6 | %6
 [C,E,G,]3 [C,E,A,]3 | [E,^G,B,]3 B,G,^F, | [E,^G,B,]6 | [E,^G,B,]6 | [E,^G,B,]3 [E,G,C]3 | %11
 [E,^G,B,]3 B,G,^F, | [E,^G,B,]6 | [E,^G,B,]6 | [E,^G,B,]3 [A,CE]3 | [G,B,D]3 DB,A, | [G,B,D]6 | %17
 [G,,B,,D,]6 | [G,B,D]3 [G,,B,,D,]3 | [G,B,F]3 [G,,B,,F,]3 | [C,E,G,]6 | [C,E,G,]6 | %22
 [C,E,G,]3 [C,E,A,]3 | [D,F,A,]3 A,F,E, | [D,F,A,]6 | [D,F,A,]6 | [D,F,A,]3 [D,F,B,]3 | %27
 [E,G,B,]3 [E,G,C]3 | [F,A,C]3 [F,A,D]3 |[K:treble] [E,^G,B,]3 z/ B/^G/E/G/B/ | !fermata!E6 | %31
[K:bass] [C,E,G,]3 A,3 | [C,E,G,]3 A,3 | G,E,D, C,D,E, | G,E,D, C,D,/E,/D,/E,/ | [C,G,]6 | %36
 [A,,E,]6 | [C,,G,,]6 |] %38

